X: 22230
T: La Doune Cella
R: barndance
M: 4/4
K: Gminor
G4 B4|A4 A2 d2|c2 d2 B2 c2|A4 A2 d2|c2 B2 B2 A2|
B4 B2 f2|Bc d2 c2 c2|d3 e f2 ed|c2 B4 A2|B6 B2:|
|:A4 G4|F3 G A2 B2|A2 G4 ^F2|G6 G2:|d2 d2 c2 c2|
B3 A Bc d2|c2 B4 A2|1 B6 B2]:|2 B6 dd]|:e2 c2 d2 B2|
c3 B A2 d2|cBAG G2 ^F2|1 G6 dd]:|2 G8]||

